build/documents/ComponentTemplateSolid.svg

<svg xmlns="http://www.w3.org/2000/svg" fill="none" viewBox="0 0 24 24" focusable="false"><path d="M0 0H24V24H0z"/><path fill="#74767B" fill-rule="evenodd" d="M7 3C5.34315 3 4 4.34315 4 6L4 18C4 19.6569 5.34315 21 7 21L17 21C18.6569 21 20 19.6569 20 18L20 9.2997C20 8.47047 19.6568 7.67823 19.0518 7.11108L15.5321 3.81139C14.9761 3.2901 14.2425 3 13.4803 3L7 3ZM18.4025 8.4025C18.623 8.62299 18.4668 8.99999 18.155 8.99999L15.3361 9C14.5982 9 14 8.36191 14 7.57479L14 4.84497C14 4.53316 14.377 4.377 14.5975 4.59748L18.4025 8.4025ZM9.82671 10.9352C10.1109 11.1545 10.1634 11.5627 9.94398 11.8469L9.08433 12.9603L9.94964 14.115C10.1649 14.4023 10.1065 14.8097 9.81927 15.0249C9.532 15.2402 9.1246 15.1818 8.90932 14.8946L7.74752 13.3442C7.57232 13.1104 7.57463 12.7884 7.75318 12.5572L8.91498 11.0524C9.13437 10.7683 9.54256 10.7158 9.82671 10.9352ZM14.0556 14.1075C13.8362 14.3917 13.8887 14.7999 14.1729 15.0192C14.457 15.2386 14.8652 15.1861 15.0846 14.902L16.2464 13.3972C16.4249 13.166 16.4273 12.844 16.2521 12.6102L15.0902 11.0598C14.875 10.7726 14.4676 10.7142 14.1803 10.9295C13.893 11.1447 13.8347 11.5521 14.0499 11.8394L14.9152 12.9941L14.0556 14.1075ZM12.62 10.7076C12.9671 10.7993 13.174 11.1551 13.0823 11.5021L12.2123 14.7933C12.1205 15.1404 11.7648 15.3474 11.4178 15.2556C11.0707 15.1639 10.8637 14.8082 10.9555 14.4611L11.8255 11.1699C11.9172 10.8228 12.2729 10.6159 12.62 10.7076Z"/></svg>

<svg xmlns="http://www.w3.org/2000/svg" fill="none" viewBox="0 0 24 24" focusable="false"><path fill="#74767B" fill-rule="evenodd" d="M7 3C5.34 3 4 4.34 4 6v12c0 1.65 1.34 3 3 3h10c1.65 0 3-1.35 3-3V9.29c0-.82-.35-1.62-.95-2.18l-3.52-3.3c-.56-.52-1.29-.81-2.05-.81zm11.4 5.4c.22.22.06.59-.25.59L15.33 9C14.59 9 14 8.36 14 7.57V4.84c0-.31.37-.47.59-.25zm-8.58 2.53c.29.22.34.63.12.91l-.86 1.12.86 1.15c.22.29.16.69-.13.91-.28.22-.69.16-.91-.13l-1.16-1.55a.66.66 0 0 1 .01-.79l1.16-1.5c.22-.29.63-.34.91-.12m4.23 3.17c-.22.29-.17.69.12.91.28.22.69.17.91-.11l1.16-1.51c.18-.23.18-.55.01-.78l-1.16-1.56a.663.663 0 0 0-.91-.13c-.29.22-.35.63-.13.91l.86 1.16zm-1.43-3.4c.34.09.55.45.46.8l-.87 3.29a.651.651 0 0 1-1.26-.33l.87-3.3a.66.66 0 0 1 .8-.46"/></svg>
